X: 56
T: JIG: Old Grey Goose
C: C: Trad.; S: Denis Murphy
C: Set Leaders: Anton, Oliushka
Z: Anton Zille ed.; Bregolas at The Session
N: https://thesession.org/members/26966/sets/90908
R: Jig
M: 6/8
L: 1/8
Q: 3/8=116
K: Emin
E2 F|:GBG FAF|GEE EGE|DFA dBG|~F3 DEF|
~G3 AGA|BGB gfg|edB BAF|1 GEE E2F:|2 GEE E2A||
|:G2B dBG|GBd dBG|A3 ecA|A/B/cA ecA|
~G3 AGA|BGB gfg|edB BAF|1 GEE E2A:|2 GEE E2B||
|:e/f/ge edB|BAB g2e|fdd add|e/f/ge edB|
gfg edB|~B3 gfg|edB BAF|1 GEE E2B:|2 GEE E2d||
|:BGB AFA|GEE E2d|BGB dBG|FAA D2d|
BGB AFA|BAB gfg|edB BAF|1 GEE E2d:|2 GEE E3||
|:gbg f/g/af|gee e2f|gbg fag|~f3 def|
gbg faf|edB ~g3|edB BAF|GEE E2e:||
|:gdB BcA|GEE E2e|gdB dAG|FAA DEF|
~G3 AGA|BAB gfg|edB BAF|1 GEE E2e:|2 GEE E3||

